X:685
T:Walls of Liscarrol, The
R:jig
Z:Transcribed by Dave Marshall
M:6/8
K:Edor
|: edB BAF | AFE ~E3 | AFF dFF | ABc def |
edB BAF | AFE ~E3 | AFF dFF | FED E3 :|
|:ede fdB | ede fdB | AFF dFF | ABc def |1
ede fdB | ede fdB | AFF dFF | FED E3 :|2
edB BAF | AFE ~E3 | AFF dFF | FED E3 |
